storage/app/icons/phosphoricons/thin/notebook-thin.svg

<svg xmlns="http://www.w3.org/2000/svg" fill="currentColor" viewBox="0 0 256 256"><path d="M180 112a4 4 0 0 1-4 4h-64a4 4 0 0 1 0-8h64a4 4 0 0 1 4 4m-4 28h-64a4 4 0 0 0 0 8h64a4 4 0 0 0 0-8m44-92v160a12 12 0 0 1-12 12H48a12 12 0 0 1-12-12V48a12 12 0 0 1 12-12h160a12 12 0 0 1 12 12M48 212h28V44H48a4 4 0 0 0-4 4v160a4 4 0 0 0 4 4M212 48a4 4 0 0 0-4-4H84v168h124a4 4 0 0 0 4-4Z"/></svg>

<svg xmlns="http://www.w3.org/2000/svg" viewBox="0 0 256 256" fill="currentColor"><path d="M180,112a4,4,0,0,1-4,4H112a4,4,0,0,1,0-8h64A4,4,0,0,1,180,112Zm-4,28H112a4,4,0,0,0,0,8h64a4,4,0,0,0,0-8Zm44-92V208a12,12,0,0,1-12,12H48a12,12,0,0,1-12-12V48A12,12,0,0,1,48,36H208A12,12,0,0,1,220,48ZM48,212H76V44H48a4,4,0,0,0-4,4V208A4,4,0,0,0,48,212ZM212,48a4,4,0,0,0-4-4H84V212H208a4,4,0,0,0,4-4Z"/></svg>
